src/fantasticon/icons/arrow-up.svg

<svg width="24" height="24" viewBox="0 0 24 24" fill="none" xmlns="http://www.w3.org/2000/svg">
<path d="M5.96654 15.3722C6.34956 15.7266 6.94074 15.7269 7.32414 15.3729L12 11.0553L16.6759 15.3729C17.0593 15.7269 17.6504 15.7266 18.0335 15.3722L18.2069 15.2117C18.6346 14.8159 18.6346 14.1396 18.2069 13.7438L12.6792 8.62852C12.2959 8.2738 11.7041 8.2738 11.3208 8.62852L5.79313 13.7438C5.36539 14.1396 5.36539 14.8159 5.79313 15.2117L5.96654 15.3722Z" fill="#212121"/>
</svg>

<?xml version="1.0" encoding="UTF-8"?><svg id="a" xmlns="http://www.w3.org/2000/svg" viewBox="0 0 24 24"><path d="M5.97,15.37c.38,.35,.97,.35,1.36,0l4.68-4.32,4.68,4.32c.38,.35,.97,.35,1.36,0l.17-.16c.43-.4,.43-1.07,0-1.47l-5.53-5.12c-.38-.35-.98-.35-1.36,0l-5.53,5.12c-.43,.4-.43,1.07,0,1.47l.17,.16Z"/></svg>
